src/assets/icons/expand.svg

<svg width="14" height="14" viewBox="0 0 14 14" fill="none" xmlns="http://www.w3.org/2000/svg">
<g id="expand">
<g clip-path="url(#clip0_295_4736)">
<path id="Vector" fill-rule="evenodd" clip-rule="evenodd" d="M2.2 1.2C1.64772 1.2 1.2 1.64772 1.2 2.2V4.6C1.2 4.93137 0.931371 5.2 0.6 5.2C0.268629 5.2 0 4.93137 0 4.6V2.2C0 0.984974 0.984974 0 2.2 0H4.6C4.93137 0 5.2 0.268629 5.2 0.6C5.2 0.931371 4.93137 1.2 4.6 1.2H2.2ZM8.8 0.6C8.8 0.268629 9.06863 0 9.4 0H11.8C13.015 0 14 0.984974 14 2.2V4.6C14 4.93137 13.7314 5.2 13.4 5.2C13.0686 5.2 12.8 4.93137 12.8 4.6V2.2C12.8 1.64772 12.3523 1.2 11.8 1.2H9.4C9.06863 1.2 8.8 0.931371 8.8 0.6ZM0.6 8.8C0.931371 8.8 1.2 9.06863 1.2 9.4V11.8C1.2 12.3523 1.64772 12.8 2.2 12.8H4.6C4.93137 12.8 5.2 13.0686 5.2 13.4C5.2 13.7314 4.93137 14 4.6 14H2.2C0.984974 14 0 13.015 0 11.8V9.4C0 9.06863 0.268629 8.8 0.6 8.8ZM13.4 8.8C13.7314 8.8 14 9.06863 14 9.4V11.8C14 13.015 13.015 14 11.8 14H9.4C9.06863 14 8.8 13.7314 8.8 13.4C8.8 13.0686 9.06863 12.8 9.4 12.8H11.8C12.3523 12.8 12.8 12.3523 12.8 11.8V9.4C12.8 9.06863 13.0686 8.8 13.4 8.8Z" fill="black"/>
</g>
</g>
<defs>
<clipPath id="clip0_295_4736">
<rect width="14" height="14" fill="white"/>
</clipPath>
</defs>
</svg>

<svg xmlns="http://www.w3.org/2000/svg" fill="none" viewBox="0 0 14 14"><g clip-path="url(#a)"><path fill="#000" fill-rule="evenodd" d="M2.2 1.2a1 1 0 0 0-1 1v2.4a.6.6 0 0 1-1.2 0V2.2A2.2 2.2 0 0 1 2.2 0h2.4a.6.6 0 0 1 0 1.2zM8.8.6a.6.6 0 0 1 .6-.6h2.4A2.2 2.2 0 0 1 14 2.2v2.4a.6.6 0 1 1-1.2 0V2.2a1 1 0 0 0-1-1H9.4a.6.6 0 0 1-.6-.6M.6 8.8a.6.6 0 0 1 .6.6v2.4a1 1 0 0 0 1 1h2.4a.6.6 0 1 1 0 1.2H2.2A2.2 2.2 0 0 1 0 11.8V9.4a.6.6 0 0 1 .6-.6m12.8 0a.6.6 0 0 1 .6.6v2.4a2.2 2.2 0 0 1-2.2 2.2H9.4a.6.6 0 1 1 0-1.2h2.4a1 1 0 0 0 1-1V9.4a.6.6 0 0 1 .6-.6" clip-rule="evenodd"/></g><defs><clipPath id="a"><path fill="#fff" d="M0 0h14v14H0z"/></clipPath></defs></svg>
